static/img/kroki/acbfb56d9a94df54939c25f21744c22a.svg

<?xml version="1.0" encoding="us-ascii" standalone="no"?><svg xmlns="http://www.w3.org/2000/svg" xmlns:xlink="http://www.w3.org/1999/xlink" contentStyleType="text/css" height="152px" preserveAspectRatio="none" style="width:371px;height:152px;" version="1.1" viewBox="0 0 371 152" width="371px" zoomAndPan="magnify"><defs/><g><!--class azure_postgresql_server--><g id="elem_azure_postgresql_server"><rect codeLine="23" fill="#3D176E" height="39.7891" id="azure_postgresql_server" rx="2.5" ry="2.5" style="stroke:#000D19;stroke-width:0.5;" width="243" x="64" y="7"/><ellipse cx="79" cy="26.8945" fill="#ADD1B2" rx="11" ry="11" style="stroke:#181818;stroke-width:1.0;"/><path d="M81.9688,32.5352 Q81.3906,32.832 80.75,32.9727 Q80.1094,33.1289 79.4063,33.1289 Q76.9063,33.1289 75.5781,31.4883 Q74.2656,29.832 74.2656,26.707 Q74.2656,23.582 75.5781,21.9258 Q76.9063,20.2695 79.4063,20.2695 Q80.1094,20.2695 80.75,20.4258 Q81.4063,20.582 81.9688,20.8789 L81.9688,23.5977 Q81.3438,23.0195 80.75,22.7539 Q80.1563,22.4727 79.5313,22.4727 Q78.1875,22.4727 77.5,23.5508 Q76.8125,24.6133 76.8125,26.707 Q76.8125,28.8008 77.5,29.8789 Q78.1875,30.9414 79.5313,30.9414 Q80.1563,30.9414 80.75,30.6758 Q81.3438,30.3945 81.9688,29.8164 L81.9688,32.5352 Z " fill="#000000"/><text fill="#D9B8FF" font-family="Helvetica" font-size="17" lengthAdjust="spacing" textLength="201" x="98" y="32.7798">azure_postgresql_server</text></g><!--class azure_postgresql_server_firewall_rule--><g id="elem_azure_postgresql_server_firewall_rule"><rect codeLine="26" fill="#3D176E" height="39.7891" id="azure_postgresql_server_firewall_rule" rx="2.5" ry="2.5" style="stroke:#000D19;stroke-width:0.5;" width="357" x="7" y="106.79"/><ellipse cx="22" cy="126.6845" fill="#ADD1B2" rx="11" ry="11" style="stroke:#181818;stroke-width:1.0;"/><path d="M24.9688,132.3252 Q24.3906,132.622 23.75,132.7627 Q23.1094,132.9189 22.4063,132.9189 Q19.9063,132.9189 18.5781,131.2783 Q17.2656,129.622 17.2656,126.497 Q17.2656,123.372 18.5781,121.7158 Q19.9063,120.0595 22.4063,120.0595 Q23.1094,120.0595 23.75,120.2158 Q24.4063,120.372 24.9688,120.6689 L24.9688,123.3877 Q24.3438,122.8095 23.75,122.5439 Q23.1563,122.2627 22.5313,122.2627 Q21.1875,122.2627 20.5,123.3408 Q19.8125,124.4033 19.8125,126.497 Q19.8125,128.5908 20.5,129.6689 Q21.1875,130.7314 22.5313,130.7314 Q23.1563,130.7314 23.75,130.4658 Q24.3438,130.1845 24.9688,129.6064 L24.9688,132.3252 Z " fill="#000000"/><text fill="#D9B8FF" font-family="Helvetica" font-size="17" lengthAdjust="spacing" textLength="315" x="41" y="132.5698">azure_postgresql_server_firewall_rule</text></g><!--link azure_postgresql_server to azure_postgresql_server_firewall_rule--><g id="link_azure_postgresql_server_azure_postgresql_server_firewall_rule"><path codeLine="29" d="M185.5,47.22 C185.5,64.36 185.5,83.27 185.5,100.41 " fill="none" id="azure_postgresql_server-to-azure_postgresql_server_firewall_rule" style="stroke:#1A83AF;stroke-width:2.0;"/><polygon fill="#1A83AF" points="185.5,106.41,189.5,97.41,185.5,101.41,181.5,97.41,185.5,106.41" style="stroke:#1A83AF;stroke-width:2.0;"/></g><!--SRC=[ZP31Ji9048RlVOfDUYQX4eLUJ6eJeXTYn9inpT2TfPjkT-libWQCxow8cgMLudN_R__vPWh9aM5Lkoshi5eXsS2MKjT0KB64oBIfKOPOA0I8oRGRpers5u45LCZkKMtGoHown7CXyrAZjUpAY-uWBzTa6isFzOv0sts4sdbKgi3Qn3cIgyQX9yFZrKo8Bjaj3ISycjvW3pF4aRwHyNZCexYBN1mrkFSliPGxP95_j8LnsDFiZVYY1YqFX2VPM_GdF-lu29nBlMRNtjlJqOaqqidxiW1ksWCjG5b_Z7L8QDosnhIt5SOpBgP_mW_du20_d8x1hY7CQcFTcj2-gSmYRVPIxq7mCOnaGXAse5H6ZSBZXtDjevSmIcQJPFuwklrVN_09]--></g></svg>

<svg xmlns="http://www.w3.org/2000/svg" width="371" height="152" viewBox="0 0 371 152"><rect width="243" height="39.789" x="64" y="7" fill="#3D176E" rx="2.5" ry="2.5" style="stroke:#000d19;stroke-width:.5"/><circle cx="79" cy="26.895" r="11" fill="#ADD1B2" style="stroke:#181818;stroke-width:1"/><path d="M81.969 32.535q-.578.297-1.219.438-.64.156-1.344.156-2.5 0-3.828-1.64-1.312-1.657-1.312-4.782t1.312-4.781q1.328-1.656 3.828-1.656.703 0 1.344.156.656.156 1.219.453v2.719q-.625-.578-1.219-.844-.594-.281-1.219-.281-1.344 0-2.031 1.078-.687 1.062-.687 3.156t.687 3.172q.688 1.062 2.031 1.062.625 0 1.219-.265.594-.281 1.219-.86z"/><text x="98" y="32.78" fill="#D9B8FF" font-family="Helvetica" font-size="17" textLength="201">azure_postgresql_server</text><rect width="357" height="39.789" x="7" y="106.79" fill="#3D176E" rx="2.5" ry="2.5" style="stroke:#000d19;stroke-width:.5"/><circle cx="22" cy="126.684" r="11" fill="#ADD1B2" style="stroke:#181818;stroke-width:1"/><path d="M24.969 132.325q-.578.297-1.219.438-.64.156-1.344.156-2.5 0-3.828-1.64-1.312-1.657-1.312-4.782t1.312-4.781q1.328-1.656 3.828-1.656.703 0 1.344.156.656.156 1.219.453v2.719q-.625-.579-1.219-.844-.594-.281-1.219-.281-1.343 0-2.031 1.078-.687 1.062-.687 3.156t.687 3.172q.688 1.062 2.031 1.062.625 0 1.219-.265.594-.281 1.219-.86z"/><text x="41" y="132.57" fill="#D9B8FF" font-family="Helvetica" font-size="17" textLength="315">azure_postgresql_server_firewall_rule</text><path fill="none" d="M185.5 47.22v53.19" style="stroke:#1a83af;stroke-width:2"/><path fill="#1A83AF" d="m185.5 106.41 4-9-4 4-4-4z" style="stroke:#1a83af;stroke-width:2"/></svg>
